X: 7
M:4/4
L:1/8
K:G
(3DEF|"tr"G2 BG dGBG|FADA FADA|G2 BG dGBd|egfa gedB|
(3def|gdBd edBd|gdBd "tr"e2 ef|gdBd edBd|egfa g3 d|
gabg efge|dedc BGBd|"tr"edef edBd|egfa gedB||
(3def|"tr"g2 gf gdBd|faag fdef|"tr"g2 gf gdBd|(3efg af g3 d|
gabg efge|dedc BGBd|"tr"edef edBd|(3efg af gedB||

